assets/icons/24px/outline/landing-24px.svg

<svg width="24" height="24" viewBox="0 0 24 24" fill="none" xmlns="http://www.w3.org/2000/svg">
<g clip-path="url(#clip0_821_19283)">
<path d="M3 21L20.5 21" stroke="white" stroke-width="2" stroke-linecap="round"/>
<path d="M18.3764 15.7154L5.42294 11.2361L5.42293 11.2361C4.43823 10.8956 3.94587 10.7253 3.61375 10.3822C3.46332 10.2268 3.33909 10.048 3.24591 9.85278C3.04019 9.42183 3.05238 8.90102 3.07675 7.85938L3.08032 7.70676L3.08032 7.70675C3.13204 5.49575 3.15791 4.39025 3.57046 4.10003C3.78634 3.94816 4.05351 3.8878 4.31371 3.93211C4.81097 4.01679 5.30958 5.0038 6.30679 6.97783C6.44082 7.24315 6.50784 7.37581 6.60614 7.48065C6.66066 7.53879 6.72194 7.59021 6.78867 7.63381C6.90898 7.71241 7.05126 7.75537 7.33582 7.84129L8.16849 8.09271C8.93325 8.32363 9.31563 8.43909 9.61919 8.33606C9.8038 8.2734 9.96606 8.15816 10.086 8.0045C10.2833 7.75182 10.3002 7.35274 10.3341 6.5546C10.4156 4.63542 10.4564 3.67583 10.8334 3.39155C11.0564 3.22343 11.3395 3.1562 11.6143 3.20614C12.0789 3.29058 12.5466 4.12943 13.4822 5.80712L15.3874 9.22374C15.6911 9.76836 15.8429 10.0407 16.0659 10.2515C16.2888 10.4624 16.5691 10.5989 17.1297 10.8719L19.8379 12.1906C20.7646 12.6419 21.1666 13.7468 20.7464 14.6881C20.3424 15.5934 19.3133 16.0394 18.3764 15.7154Z" stroke="white" stroke-width="2"/>
</g>
<defs>
<clipPath id="clip0_821_19283">
<rect width="24" height="24" fill="white"/>
</clipPath>
</defs>
</svg>

<svg width="24" height="24" fill="none" xmlns="http://www.w3.org/2000/svg"><g clip-path="url(#clip0_821_19283)" stroke="#fff" stroke-width="2"><path d="M3 21h17.5" stroke-linecap="round"/><path d="M18.376 15.715L5.423 11.236c-.985-.34-1.477-.51-1.81-.854a2 2 0 0 1-.367-.53c-.206-.43-.194-.951-.17-1.993l.004-.152c.052-2.211.078-3.317.49-3.607a1 1 0 0 1 .744-.168c.497.085.996 1.072 1.993 3.046.134.265.2.398.3.503a1 1 0 0 0 .182.153c.12.078.262.121.547.207l.832.252c.765.23 1.148.346 1.451.243a1 1 0 0 0 .467-.332c.197-.252.214-.651.248-1.45.082-1.919.122-2.878.5-3.162a1 1 0 0 1 .78-.186c.465.085.933.923 1.868 2.601l1.905 3.417c.304.544.456.817.679 1.027.223.211.503.348 1.064.62l2.708 1.32a1.911 1.911 0 0 1-1.462 3.524z"/></g><defs><clipPath id="clip0_821_19283"><path fill="#fff" d="M0 0H24V24H0z"/></clipPath></defs></svg>
